packages/foundations/assets/icons/functional/images/communication/speech_bubble_question_mark_32.svg

<svg width="32" height="32" viewBox="0 0 32 32" fill="none" xmlns="http://www.w3.org/2000/svg">
<g clip-path="url(#clip0_185_499)">
<path fill-rule="evenodd" clip-rule="evenodd" d="M27 2.5C28.5625 2.5 30 3.6562 30 5.5V20.5C30 22.0625 28.8773 23.5 27 23.5H9.84375C9.5625 23.5 9.35922 23.5457 9.125 23.7812L3.71875 29.2188C3.53179 29.4068 3.25 29.5 3 29.5C2.53125 29.5 2 29.1257 2 28.5V5.5C2 3.9375 3.25382 2.5 5 2.5H27ZM27 4.5H5C4.53125 4.5 4 4.75 4 5.5V26.0938L7.6875 22.375C8.2945 21.7629 8.92904 21.5 9.84375 21.5H27C27.4688 21.5 28 21.2188 28 20.5V5.5C28 5.0312 27.6277 4.5 27 4.5ZM15.25 16C15.9207 16 16.5 16.5556 16.5 17.2345C16.5 17.9445 15.9207 18.5 15.25 18.5C14.5793 18.5 14 17.9445 14 17.2345C14 16.5556 14.5793 16 15.25 16ZM15.7204 7C17.533 7 18.8454 8.0937 18.8454 9.7812C18.8454 12.6874 16.2204 12.5 16.2204 13.8437C16.2204 14.3124 15.8767 14.8124 15.2517 14.8124C14.7204 14.8124 14.283 14.375 14.283 13.8437C14.283 11.1874 16.908 11.5312 16.908 9.7812C16.908 9.1562 16.3454 8.9374 15.783 8.9374C15.0017 8.9374 14.3767 9.3124 13.8767 9.2812C13.3767 9.25 12.9704 8.8437 13.0017 8.3124C13.0017 7.3124 14.4704 7 15.7204 7Z" fill="#1A1C1F"/>
</g>
<defs>
<clipPath id="clip0_185_499">
<rect width="32" height="32" fill="white"/>
</clipPath>
</defs>
</svg>

<svg xmlns="http://www.w3.org/2000/svg" width="32" height="32" fill="none"><g clip-path="url(#a)"><path fill="#1A1C1F" fill-rule="evenodd" d="M27 2.5c1.563 0 3 1.156 3 3v15c0 1.563-1.123 3-3 3H9.844c-.281 0-.485.046-.719.281L3.719 29.22A1.04 1.04 0 0 1 3 29.5c-.469 0-1-.374-1-1v-23c0-1.562 1.254-3 3-3zm0 2H5c-.469 0-1 .25-1 1v20.594l3.688-3.719c.606-.612 1.241-.875 2.156-.875H27c.469 0 1-.281 1-1v-15c0-.469-.372-1-1-1M15.25 16c.67 0 1.25.556 1.25 1.235 0 .71-.58 1.265-1.25 1.265S14 17.945 14 17.235c0-.68.58-1.235 1.25-1.235m.47-9c1.813 0 3.125 1.094 3.125 2.781 0 2.906-2.625 2.719-2.625 4.063 0 .468-.343.968-.968.968a.973.973 0 0 1-.969-.968c0-2.657 2.625-2.313 2.625-4.063 0-.625-.563-.844-1.125-.844-.781 0-1.406.375-1.906.344s-.907-.437-.875-.969c0-1 1.468-1.312 2.718-1.312" clip-rule="evenodd"/></g><defs><clipPath id="a"><path fill="#fff" d="M0 0h32v32H0z"/></clipPath></defs></svg>
